X: 0
T: Franconia
Z: "Harmonischer Liederschatz," 1738
Z: Copyright © 2005 by Douglas D. Anderson
Z: Released to the Public Domain
L: 1/4
M: 4/4
V: P1 name="Soprano"
%%MIDI program 1 19
V: P2 name="Alto"
%%MIDI program 2 60
V: P3 name="Tenor"
%%MIDI program 3 57
V: P4 name="Bass"
%%MIDI program 4 58
K: D
[V: P1]  D | E F G A | F3 A | B d G F | E3 A | d c B A | B B A A | D F E E | D3|]
[V: P2]  A, | C D D E | D3 D | D D C D | C3 E | D E F C | D E C A, | A, D D C | A,3|]
[V: P3]  F, | A, A, B, A, | A,3 F, | G, A, A, A, | A,3 C | A, A, A, A, | F, ^G, A, E, | F, A, B, A, | F,3|]
[V: P4]  D, | A,, D, B,, C, | D,3 D, | G, F, E, D, | A,,3 A, | F, E, D, F, | B,, E, A,, C, | D, F,, G,, A,, | D,3|]

